src/static/icons/settings_icon.svg

<?xml version="1.0" encoding="UTF-8"?>
<svg width="21px" height="21px" viewBox="0 0 21 21" version="1.1" xmlns="http://www.w3.org/2000/svg" xmlns:xlink="http://www.w3.org/1999/xlink">
    <!-- Generator: Sketch 52.2 (67145) - http://www.bohemiancoding.com/sketch -->
    <title>settings_icon</title>
    <desc>Created with Sketch.</desc>
    <g id="settings_icon" stroke="none" stroke-width="1" fill="none" fill-rule="evenodd">
        <g id="settings-icon" fill="#007AFF">
            <path d="M6.05247391,16.9465891 C6.1383,16.9465891 6.22458261,16.9707848 6.2999087,17.0196326 C7.09060435,17.5300239 7.95206087,17.8883935 8.86053913,18.0837848 C9.04086522,18.1225891 9.18056087,18.26685 9.21343043,18.4485457 L9.44306087,19.7121978 C9.48277826,19.9290457 9.67177826,20.0870022 9.89227826,20.0870022 L11.1075391,20.0870022 C11.3284957,20.0870022 11.5170391,19.9290457 11.5567565,19.7117413 L11.786387,18.4485457 C11.8192565,18.26685 11.9589522,18.1225891 12.1392783,18.0837848 C13.0477565,17.8883935 13.909213,17.5300239 14.6999087,17.0196326 C14.8551261,16.9182848 15.0559957,16.9223935 15.2075609,17.02785 L16.2666913,17.7610239 C16.4442783,17.8838283 16.6971913,17.8600891 16.849213,17.7085239 L17.7088435,16.84935 C17.8649739,16.6932196 17.886887,16.4480674 17.760887,16.2668283 L17.027713,15.2072413 C16.922713,15.0552196 16.9195174,14.855263 17.0194957,14.7000457 C17.5303435,13.90935 17.8882565,13.047437 18.0836478,12.1398717 C18.1224522,11.9586326 18.2662565,11.81985 18.4484087,11.7860674 L19.7120609,11.556437 C19.9293652,11.5171761 20.0868652,11.3281761 20.0868652,11.1076761 L20.0868652,9.89241522 C20.0868652,9.6714587 19.9293652,9.4824587 19.7120609,9.4427413 L18.4484087,9.21402391 C18.2662565,9.1802413 18.1224522,9.0414587 18.0836478,8.86021957 C17.8882565,7.95265435 17.5303435,7.0907413 17.0194957,6.30004565 C16.9195174,6.14482826 16.922713,5.94441522 17.027713,5.79239348 L17.760887,4.73326304 C17.886887,4.55202391 17.8649739,4.30687174 17.7088435,4.1507413 L16.849213,3.29156739 C16.6967348,3.14000217 16.4438217,3.11580652 16.2666913,3.23906739 L15.2075609,3.9722413 C15.0559957,4.07769783 14.8555826,4.08135 14.6999087,3.9804587 C13.9087565,3.46961087 13.0477565,3.11169783 12.1392783,2.91630652 C11.9589522,2.87750217 11.8192565,2.7332413 11.786387,2.55154565 L11.5567565,1.28789348 C11.5170391,1.07104565 11.3284957,0.91308913 11.1075391,0.91308913 L9.89227826,0.91308913 C9.67177826,0.91308913 9.48277826,1.07104565 9.44306087,1.28835 L9.21343043,2.55154565 C9.18056087,2.7332413 9.04086522,2.87750217 8.86053913,2.91630652 C7.95251739,3.11169783 7.09106087,3.46961087 6.2999087,3.9804587 C6.1446913,4.08135 5.94427826,4.07769783 5.79271304,3.9722413 L4.73312609,3.23906739 C4.55599565,3.11626304 4.30262609,3.14000217 4.15060435,3.29156739 L3.29143043,4.1507413 C3.1353,4.30687174 3.11338696,4.55202391 3.23893043,4.73326304 L3.97210435,5.79239348 C4.07756087,5.94441522 4.08075652,6.14482826 3.98032174,6.30004565 C3.46993043,7.0907413 3.11201739,7.95265435 2.91616957,8.86021957 C2.87736522,9.0414587 2.73356087,9.1802413 2.55186522,9.21402391 L1.28775652,9.44319783 C1.07045217,9.4824587 0.912952174,9.6714587 0.912952174,9.89241522 L0.912952174,11.1076761 C0.912952174,11.3281761 1.07045217,11.5171761 1.28775652,11.5568935 L2.55186522,11.7860674 C2.73356087,11.81985 2.87736522,11.9586326 2.91616957,12.1398717 C3.11201739,13.047437 3.46993043,13.90935 3.98032174,14.7000457 C4.08075652,14.855263 4.07756087,15.0552196 3.97210435,15.2072413 L3.23893043,16.2668283 C3.11338696,16.4480674 3.1353,16.6932196 3.29143043,16.84935 L4.15060435,17.7085239 C4.30262609,17.8600891 4.55553913,17.8833717 4.73358261,17.7610239 L5.79271304,17.02785 C5.87077826,16.9739804 5.96162609,16.9465891 6.05247391,16.9465891 M11.1075391,21.0000457 L9.89227826,21.0000457 C9.23032174,21.0000457 8.66377826,20.5270891 8.54462609,19.8756326 L8.36886522,18.906437 C7.56036522,18.7019152 6.78838696,18.3809804 6.06616957,17.9486543 L5.25310435,18.5120022 C4.72125652,18.8790457 3.96114783,18.8101109 3.50508261,18.3540457 L2.6459087,17.4948717 C2.17751739,17.026937 2.11132174,16.2914804 2.48795217,15.74685 L3.05084348,14.9342413 C2.61897391,14.2115674 2.29803913,13.4391326 2.09397391,12.6310891 L1.12477826,12.4553283 C0.472865217,12.3366326 -9.13043477e-05,11.7700891 -9.13043477e-05,11.1076761 L-9.13043477e-05,9.89241522 C-9.13043477e-05,9.23000217 0.472865217,8.66300217 1.12477826,8.54521957 L2.09397391,8.36900217 C2.29803913,7.56050217 2.61897391,6.78852391 3.05084348,6.06585 L2.48795217,5.2532413 C2.11132174,4.70815435 2.17751739,3.97315435 2.6459087,3.50521957 L3.50508261,2.64604565 C3.96114783,2.18998043 4.72171304,2.12058913 5.25310435,2.48808913 L6.06616957,3.05143696 C6.78838696,2.61911087 7.56082174,2.29817609 8.36886522,2.09365435 L8.54462609,1.12491522 C8.66377826,0.473002174 9.23032174,4.56521739e-05 9.89227826,4.56521739e-05 L11.1075391,4.56521739e-05 C11.7694957,4.56521739e-05 12.3364957,0.473002174 12.4551913,1.1244587 L12.6314087,2.09365435 C13.4394522,2.29817609 14.2114304,2.61911087 14.9341043,3.05143696 L15.746713,2.48808913 C16.2785609,2.12058913 17.0391261,2.18998043 17.4947348,2.64604565 L18.3543652,3.50521957 C18.8227565,3.97315435 18.8889522,4.70815435 18.5118652,5.2532413 L17.9489739,6.06585 C18.3808435,6.78852391 18.7017783,7.56050217 18.9063,8.36900217 L19.8754957,8.54476304 C20.5269522,8.66300217 20.9999087,9.23000217 20.9999087,9.89241522 L20.9999087,11.1076761 C20.9999087,11.7700891 20.5269522,12.3366326 19.8754957,12.4548717 L18.9063,12.6310891 C18.7017783,13.4391326 18.3808435,14.2115674 17.9489739,14.9342413 L18.5118652,15.74685 C18.8889522,16.2914804 18.8227565,17.026937 18.3543652,17.4948717 L17.4947348,18.3540457 C17.2363435,18.612437 16.8921261,18.7553283 16.5259957,18.7553283 C16.2466043,18.7553283 15.9772565,18.6708717 15.7471696,18.5120022 L14.9341043,17.9486543 C14.211887,18.3809804 13.4394522,18.7019152 12.6314087,18.906437 L12.4551913,19.8751761 C12.3364957,20.5270891 11.7694957,21.0000457 11.1075391,21.0000457" id="Fill-1"></path>
            <path d="M10.5,7.30434783 C8.73782609,7.30434783 7.30434783,8.73828261 7.30434783,10.5 C7.30434783,12.2617174 8.73782609,13.6956522 10.5,13.6956522 C12.2621739,13.6956522 13.6956522,12.2617174 13.6956522,10.5 C13.6956522,8.73828261 12.2621739,7.30434783 10.5,7.30434783 M10.5,14.6086957 C8.23473913,14.6086957 6.39130435,12.7657174 6.39130435,10.5 C6.39130435,8.23428261 8.23473913,6.39130435 10.5,6.39130435 C12.7652609,6.39130435 14.6086957,8.23428261 14.6086957,10.5 C14.6086957,12.7657174 12.7652609,14.6086957 10.5,14.6086957" id="Fill-4"></path>
        </g>
    </g>
</svg>

<svg width="21" height="21" viewBox="0 0 21 21" xmlns="http://www.w3.org/2000/svg"><title>settings_icon</title><g fill="#007AFF" fill-rule="evenodd"><path d="M6.052 16.947c.086 0 .173.024.248.073a7.69 7.69 0 0 0 2.56 1.064c.18.039.32.183.353.365l.23 1.263c.04.217.229.375.45.375h1.215c.22 0 .409-.158.449-.375l.23-1.263a.457.457 0 0 1 .352-.365 7.69 7.69 0 0 0 2.56-1.064.454.454 0 0 1 .509.008l1.059.733c.177.123.43.1.582-.052l.86-.86a.456.456 0 0 0 .052-.582l-.733-1.06a.457.457 0 0 1-.009-.507c.511-.79.87-1.653 1.065-2.56a.457.457 0 0 1 .364-.354l1.264-.23a.456.456 0 0 0 .375-.448V9.892a.457.457 0 0 0-.375-.45l-1.264-.228a.457.457 0 0 1-.364-.354 7.685 7.685 0 0 0-1.065-2.56.458.458 0 0 1 .009-.508l.733-1.059a.456.456 0 0 0-.052-.582l-.86-.86a.465.465 0 0 0-.582-.052l-1.06.733a.455.455 0 0 1-.507.008 7.684 7.684 0 0 0-2.56-1.064.457.457 0 0 1-.354-.364l-.23-1.264a.457.457 0 0 0-.448-.375H9.892c-.22 0-.41.158-.449.375l-.23 1.264a.457.457 0 0 1-.352.364A7.688 7.688 0 0 0 6.3 3.98a.454.454 0 0 1-.507-.008l-1.06-.733a.466.466 0 0 0-.582.053l-.86.859a.456.456 0 0 0-.052.582l.733 1.06a.456.456 0 0 1 .008.507 7.704 7.704 0 0 0-1.064 2.56.457.457 0 0 1-.364.354l-1.264.23a.456.456 0 0 0-.375.448v1.216c0 .22.157.41.375.449l1.264.23a.457.457 0 0 1 .364.353c.196.907.554 1.77 1.064 2.56.1.155.098.355-.008.507l-.733 1.06a.456.456 0 0 0 .052.582l.86.86a.467.467 0 0 0 .583.052l1.059-.733a.457.457 0 0 1 .26-.081M11.107 21H9.892a1.37 1.37 0 0 1-1.347-1.124l-.176-.97a8.561 8.561 0 0 1-2.303-.957l-.813.563a1.397 1.397 0 0 1-1.748-.158l-.86-.86a1.37 1.37 0 0 1-.157-1.747l.563-.813a8.574 8.574 0 0 1-.957-2.303l-.97-.176A1.37 1.37 0 0 1 0 11.108V9.892c0-.662.473-1.229 1.125-1.347l.969-.176c.204-.808.525-1.58.957-2.303l-.563-.813a1.37 1.37 0 0 1 .158-1.748l.86-.859a1.397 1.397 0 0 1 1.747-.158l.813.563a8.567 8.567 0 0 1 2.303-.957l.176-.97A1.37 1.37 0 0 1 9.892 0h1.216a1.37 1.37 0 0 1 1.347 1.124l.176.97c.808.204 1.58.525 2.303.957l.813-.563a1.397 1.397 0 0 1 1.748.158l.86.86c.468.467.534 1.202.157 1.747l-.563.813c.432.723.753 1.495.957 2.303l.97.176A1.369 1.369 0 0 1 21 9.892v1.216c0 .662-.473 1.229-1.125 1.347l-.969.176a8.59 8.59 0 0 1-.957 2.303l.563.813c.377.544.31 1.28-.158 1.748l-.86.859a1.365 1.365 0 0 1-1.748.158l-.812-.563a8.567 8.567 0 0 1-2.303.957l-.176.97A1.37 1.37 0 0 1 11.108 21"/><path d="M10.5 7.304A3.2 3.2 0 0 0 7.304 10.5a3.2 3.2 0 0 0 3.196 3.196 3.2 3.2 0 0 0 3.196-3.196A3.2 3.2 0 0 0 10.5 7.304m0 7.305A4.113 4.113 0 0 1 6.391 10.5 4.113 4.113 0 0 1 10.5 6.391a4.113 4.113 0 0 1 4.109 4.109 4.113 4.113 0 0 1-4.109 4.109"/></g></svg>
